icons/Snorkel_filled.svg

<svg width="24" height="24" viewBox="0 0 24 24" fill="none" xmlns="http://www.w3.org/2000/svg">
<path fill-rule="evenodd" clip-rule="evenodd" d="M17,2.25c0.4142,0 0.75,0.33579 0.75,0.75v3.41619c2.0169,0.54872 3.5,2.39307 3.5,4.58381v0.3594c0,2.1197 -1.5021,3.8886 -3.5,4.3002v0.5904c0,1.5621 -1.102,2.8667 -2.571,3.179c-0.3122,1.469 -1.6169,2.571 -3.179,2.571c-1.7949,0 -3.25,-1.4551 -3.25,-3.25c0,-1.7949 1.4551,-3.25 3.25,-3.25c1.4943,0 2.7531,1.0085 3.1328,2.3821c0.6537,-0.2537 1.1172,-0.8888 1.1172,-1.6321v-0.5425c-0.4699,-0.0659 -0.9273,-0.2076 -1.3541,-0.421l-1.4425,-0.7213c-0.9149,-0.4574 -1.9919,-0.4574 -2.9068,0l-1.4425,0.7213c-0.60965,0.3048 -1.28191,0.4635 -1.96352,0.4635c-2.42485,0 -4.39058,-1.9657 -4.39058,-4.3906v-0.3594c0,-2.62335 2.12665,-4.75 4.75,-4.75h8.75v-3.25c0,-0.41421 0.3358,-0.75 0.75,-0.75zM13.75,18.75c0,-0.9665 -0.7835,-1.75 -1.75,-1.75c-0.9665,0 -1.75,0.7835 -1.75,1.75c0,0.9665 0.7835,1.75 1.75,1.75c0.9665,0 1.75,-0.7835 1.75,-1.75z" fill="#002B51"/>
</svg>

<svg width="24" height="24" viewBox="0 0 24 24" fill="none" xmlns="http://www.w3.org/2000/svg">
<path fill-rule="evenodd" clip-rule="evenodd" d="M17 2.25C17.4142 2.25 17.75 2.58579 17.75 3V6.41619C19.7669 6.96491 21.25 8.80926 21.25 11V11.3594C21.25 13.4791 19.7479 15.248 17.75 15.6596V16.25C17.75 17.8121 16.648 19.1167 15.179 19.429C14.8668 20.898 13.5621 22 12 22C10.2051 22 8.75 20.5449 8.75 18.75C8.75 16.9551 10.2051 15.5 12 15.5C13.4943 15.5 14.7531 16.5085 15.1328 17.8821C15.7865 17.6284 16.25 16.9933 16.25 16.25V15.7075C15.7801 15.6416 15.3227 15.4999 14.8959 15.2865L13.4534 14.5652C12.5385 14.1078 11.4615 14.1078 10.5466 14.5652L9.1041 15.2865C8.49445 15.5913 7.82219 15.75 7.14058 15.75C4.71573 15.75 2.75 13.7843 2.75 11.3594V11C2.75 8.37665 4.87665 6.25 7.5 6.25H16.25V3C16.25 2.58579 16.5858 2.25 17 2.25ZM13.75 18.75C13.75 17.7835 12.9665 17 12 17C11.0335 17 10.25 17.7835 10.25 18.75C10.25 19.7165 11.0335 20.5 12 20.5C12.9665 20.5 13.75 19.7165 13.75 18.75Z" fill="#002B51"/>
</svg>
